X:1
T:Have I Told You Lately
T:Have I Told You Lately 
C:Scotty Wiseman wrote 1945
Z:All Rights Reserved
L:1/16
M:4/4
K:Bb
V:1 treble nm="Voice" snm="Vo."
%%MIDI program 0
V:1
"Eb" z8"Eb/F" z4 z2 Bc |"Bb" d4- d2<f2"Dm7" e2d2 z cB2 |"Eb" c2G2 z4"Eb/F" z4 z2 Bc | %3
w: Have I|told _ you late- ly that I|love you? Have I|
"Bb" d2>d2 z2 f2"Dm7" ed2c-c2Bc- |"Eb" c2<B2 z4"Eb/F" z8 |"Ebmaj7" z4 g2bb- b2gg- gf z2 | %6
w: told you there's no one else _ a- bove|_ you?|Fill my heart _ with glad- * ness|
"Dm7" z4 dffg- gd2c- cB z2 |"Cm7" z4 c2d2 eff2- fd2c |"Bb" B4 z4"Eb/F" z4 z2 Bc | %9
w: take a- way all _ my sad- * ness,|ease my trou- bles that's _ what you|do. For the|
"Bb" d4- d2<f2"Dm7" ed2c- cB2G- |"Eb" GG z2 z4"Eb/F" z4 z2 Bc |"Bb" d4 z2 f2"Dm7" e2<d2 cB2G- | %12
w: morn- * nin sun in all _ it's glo-|* ry greets the|day with hope and com- fort too.|
"Eb" G4 z4"E/B" z8 |"Ebmaj7" z3 fg2b2 b2gg- gg z2 |"Dm7" z3 c df2d g2d2c2B2 | %15
w: _|You fill my life with laugh- * ter|and some- how you make it bet- ter,|
"Cm7" z4 c2d2"Eb/F" eff2- fd2c |"^Bn" B4 z4"Cm7""Bb/D" z8 |"Ebmaj7" z2 gb bb2g g4 z4 | %18
w: ease my troub- les that's _ what you|do.|There's al love that's di- vine|
 z4 gbb2 gf(g2-g2f2 |"Dm7" d2)fd d4 z8 | z8"Cm7""Dm7" z8 |"Ebmaj7" z fgbb2gf g4 z4 | %22
w: and it's your's and it's mine _ _|_ like the sun.||And at the end of the day|
 z4 (3g2b2g2 b2g2 (3(g2f2d2) |"Dm7" fdd2- d4 z8 |1"Eb/F" dcc2- c4 z4 z2 Bc :|2 %25
w: we should give thanks and pray _ _|to the one, _|to the one. _ Have I|
"Eb/F" dcc2- c4 z4 z FBc ||"Bb" d4- d2<f2"Dm7" e2d2 z cB2 |"Eb" G2G2 z4"Eb/F" z4 z2 Bc | %28
w: to the one. _ And have I|told _ you late- ly that I|love you? Have I|
"Bb" d2>d2 z f3"Dm7" e2dc-c2B2 |"Eb" G2<G2 z4"Eb/F" z8 |"Ebmaj7" z3 fg2bb- bg2g- gf z2 | %31
w: told you there's no one else _ a-|bove you|You fill my heart _ with glad- * ness|
"Dm7" z4 z dfg- gd2c- c2<B2 |"Cm7" z4 c2d2"Eb/F" eff2- fd2c |"Bb" B4 z4"Cm7""Bb/D" z8 | %34
w: take a- way _ my sad- * ness,|ease my troub- les that's _ what you|do.|
"Ebmaj7" z4 gbgb- bg2g- gf z2 | z4 d"Dm7"f2g- gd2c- cB z2 |"Cm7" z4 c2d2 eff2- fd2c | %37
w: Take a- way all _ my sad- * ness,|fill my life * with glad- * ness,|ease my troub- les that's _ what you|
"Bb" B4 z4"Cm7""Bb/D" z8 |"Ebmaj7" z4 gbbb- b2g2g2f2 |"Dm7" z4 z2 dc d2dc- c2<B2 | %40
w: do.|Take a- way all _ my sad- ness|fill my heart with glad- * ness|
"Cm7" z4 c2d2"Eb/F" eff2-!fermata!f2dc | (6:4:6(cBcBcB"Bb" c2<B2) z8 |] %42
w: ease my trou- les that's _ what you|do. _ _ _ _ _ _ _|

